X:0
T:Lord Bateman
F:http//vwml.org/record/PG/19/2/5/0
S:Joseph Taylor
Z:Transcribed by Ruairidh Greig Dec 2013
M:3/2
L:1/4
K:F
Gcc|c2 (GA)BA|G3Gcc|(c2{d>c}) GAB c|d3 dgg|!
defedG|(B2c)de (f/e/)|(d{ed}c)AFGG|G3||

